frontend/src/assets/icons/vuejs-icon.svg

<?xml version="1.0" encoding="UTF-8"?>
<svg xmlns="http://www.w3.org/2000/svg" xmlns:xlink="http://www.w3.org/1999/xlink" width="128pt" height="128pt" viewBox="0 0 128 128" version="1.1">
<g id="surface1">
<path style=" stroke:none;fill-rule:nonzero;fill:rgb(20.784314%,28.627451%,36.862745%);fill-opacity:1;" d="M 32.191406 97.953125 C 31.824219 97.953125 31.457031 98.058594 31.136719 98.269531 C 30.816406 98.480469 30.523438 98.84375 30.523438 99.308594 C 30.523438 99.371094 30.488281 99.507812 30.609375 99.75 L 30.578125 99.671875 L 36.988281 120.46875 C 37.101562 120.859375 37.378906 121.160156 37.6875 121.328125 C 37.996094 121.5 38.335938 121.566406 38.664062 121.566406 C 39.367188 121.566406 40.136719 121.230469 40.371094 120.476562 L 46.773438 99.601562 L 46.773438 99.523438 C 46.773438 99.628906 46.804688 99.570312 46.804688 99.339844 C 46.804688 98.867188 46.503906 98.519531 46.179688 98.296875 C 45.855469 98.078125 45.472656 97.953125 45.078125 97.953125 C 44.589844 97.953125 44.027344 98.25 43.835938 98.816406 L 43.832031 98.820312 L 38.664062 116.078125 L 33.472656 98.851562 C 33.398438 98.546875 33.191406 98.289062 32.949219 98.144531 C 32.707031 98 32.445312 97.953125 32.191406 97.953125 Z M 83.246094 99.023438 C 82.226562 99.023438 81.363281 99.808594 81.363281 100.785156 C 81.363281 101.761719 82.210938 102.570312 83.246094 102.570312 C 84.261719 102.570312 85.066406 101.746094 85.066406 100.785156 C 85.066406 99.820312 84.246094 99.023438 83.246094 99.023438 Z M 68.21875 105.683594 C 64.730469 105.683594 61.855469 108.476562 61.855469 111.828125 L 61.855469 115.265625 C 61.855469 117.148438 62.605469 118.757812 63.875 119.867188 C 65.144531 120.980469 66.917969 121.59375 68.953125 121.59375 C 70.457031 121.59375 71.679688 121.257812 72.554688 120.800781 C 72.992188 120.574219 73.34375 120.316406 73.605469 120.039062 C 73.863281 119.761719 74.054688 119.453125 74.054688 119.074219 C 74.054688 118.722656 73.917969 118.417969 73.703125 118.144531 C 73.484375 117.871094 73.140625 117.621094 72.695312 117.621094 C 72.375 117.621094 72.128906 117.757812 71.917969 117.886719 C 71.703125 118.015625 71.503906 118.160156 71.261719 118.300781 C 70.78125 118.578125 70.140625 118.847656 69.015625 118.847656 C 67.757812 118.847656 66.710938 118.488281 65.992188 117.886719 C 65.269531 117.289062 64.851562 116.453125 64.851562 115.359375 L 64.851562 114.722656 L 71.285156 114.722656 C 71.972656 114.722656 72.734375 114.722656 73.394531 114.300781 C 74.054688 113.882812 74.457031 113.042969 74.457031 111.769531 C 74.457031 108.242188 71.511719 105.683594 68.21875 105.683594 Z M 92.402344 105.683594 C 90.546875 105.683594 89.183594 106.285156 88.308594 107.183594 C 87.433594 108.085938 87.054688 109.261719 87.054688 110.355469 C 87.054688 111.753906 87.621094 112.757812 88.429688 113.398438 C 89.238281 114.039062 90.242188 114.363281 91.199219 114.652344 C 92.15625 114.941406 93.074219 115.195312 93.6875 115.574219 C 94.304688 115.953125 94.632812 116.363281 94.632812 117.230469 C 94.632812 117.695312 94.492188 118.066406 94.117188 118.367188 C 93.738281 118.667969 93.066406 118.90625 91.972656 118.90625 C 90.679688 118.90625 89.957031 118.589844 89.429688 118.261719 C 89.167969 118.101562 88.957031 117.933594 88.738281 117.78125 C 88.519531 117.628906 88.269531 117.464844 87.925781 117.464844 C 87.507812 117.464844 87.199219 117.722656 87.011719 117.988281 C 86.824219 118.257812 86.71875 118.558594 86.71875 118.886719 C 86.71875 119.292969 86.914062 119.648438 87.195312 119.957031 C 87.472656 120.265625 87.851562 120.539062 88.316406 120.78125 C 89.242188 121.261719 90.519531 121.59375 92.035156 121.59375 C 93.683594 121.59375 95.035156 121.195312 95.996094 120.414062 C 96.953125 119.632812 97.476562 118.476562 97.476562 117.136719 C 97.476562 115.628906 96.925781 114.542969 96.117188 113.824219 C 95.308594 113.109375 94.289062 112.738281 93.316406 112.441406 C 92.347656 112.144531 91.410156 111.910156 90.785156 111.585938 C 90.160156 111.257812 89.867188 110.957031 89.867188 110.265625 C 89.867188 109.890625 90.015625 109.417969 90.398438 109.046875 C 90.777344 108.675781 91.398438 108.371094 92.433594 108.371094 C 93.261719 108.371094 93.875 108.5625 94.367188 108.761719 C 94.613281 108.863281 94.824219 108.96875 95.027344 109.054688 C 95.230469 109.144531 95.417969 109.230469 95.6875 109.230469 C 96.171875 109.230469 96.503906 108.910156 96.703125 108.613281 C 96.898438 108.316406 97.015625 108.023438 97.015625 107.6875 C 97.015625 107.265625 96.753906 106.96875 96.464844 106.746094 C 96.175781 106.523438 95.8125 106.34375 95.390625 106.191406 C 94.550781 105.882812 93.480469 105.683594 92.402344 105.683594 Z M 48.546875 105.867188 C 47.734375 105.867188 47.035156 106.378906 47.035156 107.132812 L 47.035156 115.328125 C 47.035156 118.652344 49.859375 121.59375 53.363281 121.59375 C 56.808594 121.59375 59.695312 118.6875 59.695312 115.328125 L 59.695312 107.105469 C 59.695312 106.726562 59.484375 106.398438 59.210938 106.1875 C 58.9375 105.980469 58.589844 105.867188 58.210938 105.867188 C 57.835938 105.867188 57.484375 105.980469 57.203125 106.183594 C 56.925781 106.386719 56.699219 106.714844 56.699219 107.105469 L 56.699219 115.328125 C 56.699219 117.070312 55.183594 118.753906 53.363281 118.753906 C 51.515625 118.753906 50.027344 117.039062 50.027344 115.328125 L 50.027344 107.132812 C 50.027344 106.742188 49.8125 106.441406 49.546875 106.222656 C 49.28125 106.007812 48.933594 105.867188 48.546875 105.867188 Z M 83.246094 105.867188 C 82.867188 105.867188 82.515625 105.964844 82.238281 106.175781 C 81.957031 106.386719 81.765625 106.734375 81.765625 107.105469 L 81.765625 122.203125 C 81.765625 123.335938 81.6875 124.285156 81.4375 124.859375 C 81.191406 125.433594 80.894531 125.691406 80.058594 125.691406 C 79.316406 125.691406 78.699219 126.335938 78.699219 127.113281 C 78.699219 127.433594 78.800781 127.785156 79.066406 128.0625 C 79.328125 128.339844 79.738281 128.5 80.210938 128.5 C 81.804688 128.5 83.023438 127.792969 83.75 126.644531 C 84.476562 125.496094 84.761719 123.960938 84.761719 122.203125 L 84.761719 107.105469 C 84.761719 106.710938 84.535156 106.371094 84.25 106.167969 C 83.964844 105.964844 83.617188 105.867188 83.246094 105.867188 Z M 68.1875 108.339844 C 70.175781 108.339844 71.523438 110.007812 71.523438 111.707031 C 71.523438 111.890625 71.503906 112.011719 71.484375 112.066406 C 71.464844 112.125 71.464844 112.117188 71.4375 112.132812 C 71.382812 112.171875 71.074219 112.25 70.488281 112.25 L 64.851562 112.25 L 64.851562 111.582031 C 64.851562 109.808594 66.335938 108.339844 68.1875 108.339844 Z M 77.699219 117.710938 C 76.609375 117.710938 75.785156 118.613281 75.785156 119.652344 C 75.785156 120.65625 76.597656 121.566406 77.699219 121.566406 C 78.738281 121.566406 79.578125 120.683594 79.578125 119.652344 C 79.578125 118.585938 78.726562 117.710938 77.699219 117.710938 Z M 77.699219 117.710938 "/>
<path style=" stroke:none;fill-rule:nonzero;fill:rgb(20.784314%,28.627451%,36.862745%);fill-opacity:1;" d="M 31.402344 0.394531 L 51.132812 0.402344 L 64.03125 21.808594 L 76.878906 0.402344 L 96.59375 0.398438 L 64.128906 56.710938 Z M 31.402344 0.394531 "/>
<path style=" stroke:none;fill-rule:nonzero;fill:rgb(25.490196%,72.156863%,51.372549%);fill-opacity:1;" d="M 9.886719 0.542969 L 31.386719 0.398438 L 64.109375 56.710938 L 96.574219 0.402344 L 118.113281 0.421875 L 64.105469 93.109375 Z M 9.886719 0.542969 "/>
</g>
</svg>

<svg xmlns="http://www.w3.org/2000/svg" width="128" height="128" viewBox="0 0 128 128"><path style="block-progression:tb;isolation:auto;mix-blend-mode:normal;text-decoration-color:#000;text-decoration-line:none;text-decoration-style:solid;text-indent:0;text-transform:none" fill="#35495e" d="m32.191 97.953c-0.36865 0-0.73578 0.1056-1.0547 0.31641-0.31891 0.2108-0.61133 0.57433-0.61133 1.041 0 0.06137-0.03614 0.1992 0.08398 0.43945l-0.03125-0.07617 6.4102 20.797c0.11475 0.39015 0.39019 0.68831 0.69922 0.85938s0.64908 0.23633 0.97852 0.23633c0.70045 0 1.4696-0.33428 1.7051-1.0879v-0.002l6.4043-20.875v-0.07617c0 0.1053 0.03125 0.04444 0.03125-0.18359 0-0.47463-0.30314-0.82361-0.62695-1.043-0.32382-0.21936-0.70504-0.3457-1.1016-0.3457-0.48903 0-1.0516 0.29744-1.2402 0.86328l-0.0039 0.0059-5.1699 17.254-5.1895-17.223c-0.07694-0.30774-0.28421-0.56558-0.52539-0.70898s-0.50427-0.19141-0.75782-0.19141zm51.055 1.0723c-1.0204 0-1.8809 0.7817-1.8809 1.7598 0 0.97806 0.84711 1.7871 1.8809 1.7871 1.0142 0 1.8203-0.8242 1.8203-1.7871 0-0.96291-0.82002-1.7598-1.8203-1.7598zm-15.029 6.6582c-3.4884 0-6.3613 2.7915-6.3613 6.1465v3.4375c0 1.8791 0.74876 3.4896 2.0195 4.6016 1.2708 1.1119 3.0446 1.7266 5.0781 1.7266 1.502 0 2.7262-0.33628 3.6016-0.79297 0.43766-0.22834 0.78933-0.48448 1.0488-0.76367 0.2595-0.27918 0.45117-0.58478 0.45117-0.96679-0.000001-0.35077-0.13509-0.65471-0.35352-0.92774-0.21842-0.27303-0.56248-0.52344-1.0059-0.52344-0.32027 0-0.56614 0.13479-0.7793 0.26563-0.21315 0.13083-0.41335 0.27538-0.6543 0.41406-0.4819 0.27736-1.1204 0.54688-2.248 0.54688-1.2554 0-2.3023-0.35802-3.0234-0.95899-0.72117-0.60097-1.1406-1.4353-1.1406-2.5293v-0.63672h6.4355c0.6864 0 1.4494 0.001 2.1094-0.41993 0.65995-0.42135 1.0605-1.2588 1.0605-2.5332 0-3.5292-2.9447-6.0859-6.2383-6.0859zm24.186 0c-1.8542 0-3.2178 0.59997-4.0938 1.502-0.87597 0.90198-1.2539 2.0754-1.2539 3.1719 0 1.3974 0.56454 2.3989 1.373 3.041 0.80851 0.64211 1.8144 0.96522 2.7715 1.2539 0.95712 0.28869 1.8732 0.5449 2.4883 0.92383 0.6151 0.37894 0.94531 0.78884 0.94531 1.6543 0 0.46456-0.1396 0.83433-0.51758 1.1367-0.37798 0.30238-1.049 0.54101-2.1426 0.54101-1.2937 0-2.0167-0.31909-2.543-0.64453-0.26312-0.16272-0.47512-0.33158-0.69336-0.48242s-0.46571-0.31445-0.8125-0.31445c-0.41739 0-0.72514 0.25714-0.91211 0.52343-0.18697 0.2663-0.29492 0.56884-0.29492 0.89649 0 0.40512 0.19716 0.76131 0.47656 1.0703 0.27941 0.30901 0.65746 0.58398 1.1211 0.82422 0.92726 0.48049 2.2041 0.81445 3.7207 0.81445 1.6465 0 3.0006-0.4019 3.959-1.1816 0.95834-0.77974 1.4805-1.9389 1.4805-3.2754 0-1.5096-0.54876-2.5951-1.3574-3.3125-0.80867-0.71736-1.8296-1.0872-2.8008-1.3848-0.97115-0.29761-1.9057-0.52926-2.5312-0.85547-0.62552-0.32622-0.91992-0.62713-0.91992-1.3203 0-0.37496 0.15-0.84657 0.53125-1.2187 0.38125-0.37218 1.0032-0.67383 2.0371-0.67383 0.82606 0 1.4401 0.1897 1.9316 0.39062 0.24577 0.10046 0.45939 0.20542 0.66211 0.29297 0.20272 0.0875 0.38964 0.17383 0.6582 0.17383 0.48505 0 0.81748-0.31997 1.0156-0.61719 0.19815-0.29722 0.3125-0.59036 0.3125-0.92578 0-0.42021-0.26147-0.71802-0.55078-0.94141s-0.65198-0.40072-1.0723-0.55468c-0.84057-0.30794-1.9126-0.50782-2.9883-0.50782zm-43.857 0.18555c-0.81105 0-1.5117 0.50854-1.5117 1.2656v8.1934c0 3.3238 2.8258 6.2676 6.3301 6.2676 3.4452 0 6.3301-2.9092 6.3301-6.2676v-8.2226c0-0.37893-0.20849-0.70759-0.48242-0.91602-0.27393-0.20842-0.622-0.32031-1-0.32031s-0.72801 0.11043-1.0078 0.31445c-0.27981 0.20403-0.50391 0.53013-0.50391 0.92188v8.2226c0 1.7423-1.5183 3.4277-3.3359 3.4277-1.8478 0-3.3359-1.7154-3.3359-3.4277v-8.1934c0-0.39244-0.21435-0.695-0.48047-0.91016s-0.6137-0.35547-1.002-0.35547zm34.701 0c-0.37921 0-0.73049 0.0976-1.0098 0.30859-0.27928 0.21101-0.4707 0.55819-0.4707 0.92774v15.096c0 1.1328-0.07939 2.083-0.32812 2.6582-0.24873 0.57519-0.54222 0.83007-1.3809 0.83007-0.74093 0-1.3594 0.64736-1.3594 1.4219 0 0.32192 0.10384 0.67528 0.36719 0.95117s0.67217 0.4375 1.1445 0.4375c1.5943 0 2.8141-0.70695 3.541-1.8555 0.72696-1.1485 1.0098-2.6849 1.0098-4.4434v-15.096c0-0.39336-0.22472-0.7356-0.50977-0.9375-0.28504-0.20191-0.63516-0.29883-1.0039-0.29883zm-15.061 2.4727c1.9913 0 3.3359 1.6671 3.3359 3.3652 0 0.18502-0.01992 0.30619-0.03906 0.36133-0.01914 0.0551-0.01733 0.048-0.04492 0.0664-0.05518 0.0368-0.36251 0.11523-0.95117 0.11523h-5.6367v-0.66602c0-1.7772 1.4845-3.2422 3.3359-3.2422zm9.5117 9.3711c-1.0877 0-1.9121 0.90005-1.9121 1.9414 0 1.0003 0.81206 1.9121 1.9121 1.9121 1.042 0 1.8809-0.88405 1.8809-1.9121 0-1.067-0.8528-1.9414-1.8809-1.9414z" white-space="normal"/><g transform="translate(9.106 -7.663) scale(.85771)"><path fill="none" d="m-2.3125e-8 8.9337 49.854 0.1586 14.167 24.47 14.432-24.47 49.547-0.1574-63.834 110.14zm126.98 0.6374-24.36 0.0207-38.476 66.052-38.453-66.052-24.749-0.0196 63.211 107.89zm-25.149-0.008-22.745 0.16758-15.053 24.647-14.817-24.647-22.794-0.1679 37.731 64.476zM25.997 9.3929l23.002 0.0087 15.036 24.958 14.983-24.956 22.982-0.0061-37.85 65.655"/><path fill="#35495e" d="m25.997 9.3929 23.002 0.0087 15.036 24.958 14.983-24.956 22.982-0.0061-37.85 65.655z"/><path fill="#41b883" d="m0.91068 9.5686 25.066-0.1711 38.151 65.658 37.852-65.654 25.11 0.0263-62.966 108.06z"/></g></svg>
